!! Fux, A first species counterpoint example (in A minor), reprinted in:
!! J.H. Lewis "Counterpoint" Novello (London) -1893, p. 7
**kern	**kern
*M2/2	*M2/2
=1	=1
1A	1a
=2	=2
1c	1e
=3	=3
1B	1g
=4	=4
1d	1f
=5	=5
1c	1e
=6	=6
1e	1cc
=7	=7
1f	1a
=8	=8
1e	1b
=9	=9
1d	1b
=10	=10
1c	1a
=11	=11
1B	1g#
=12	=12
0A	0a
==	==
*-	*-
